src/assets/bold/lm-rectangle-area-bold.svg

<svg width="24" height="24" viewBox="0 0 24 24" fill="none" xmlns="http://www.w3.org/2000/svg" fill="currentColor">
<path d="M16.2107 3.75H3.75003C3.35221 3.75 2.97067 3.90804 2.68937 4.18934C2.40807 4.47064 2.25003 4.85218 2.25003 5.25V17.7106C2.24936 17.7235 2.24902 17.7364 2.24902 17.7494C2.24902 17.7624 2.24936 17.7753 2.25003 17.7883V18.75C2.25003 19.1478 2.40807 19.5294 2.68937 19.8107C2.97067 20.092 3.35221 20.25 3.75003 20.25H16.9616C16.9745 20.2507 16.9875 20.251 17.0004 20.251C17.0134 20.251 17.0264 20.2507 17.0393 20.25H20.25C20.6479 20.25 21.0294 20.092 21.3107 19.8107C21.592 19.5294 21.75 19.1478 21.75 18.75V7.78944C21.7507 7.77652 21.751 7.76356 21.751 7.75059C21.751 7.73762 21.7507 7.72466 21.75 7.71173V5.25C21.75 4.85218 21.592 4.47064 21.3107 4.18934C21.0294 3.90804 20.6479 3.75 20.25 3.75H16.2885C16.2756 3.74933 16.2626 3.74899 16.2496 3.74899C16.2366 3.74899 16.2236 3.74933 16.2107 3.75ZM3.75003 10.2068C3.76239 10.2024 3.77465 10.1977 3.78679 10.1927C3.87783 10.155 3.96056 10.0997 4.03024 10.03L8.53024 5.53004C8.59992 5.46035 8.6552 5.37763 8.69291 5.28658C8.69792 5.2745 8.7026 5.2623 8.70696 5.25H14.4378L3.75003 15.9377V10.2068ZM6.68777 5.25L3.75003 8.18774V5.25H6.68777ZM16.5603 5.25H20.25V7.43976L9.21982 18.47C9.14004 18.5497 9.08008 18.6456 9.04311 18.75H3.75003V18.0602L16.5603 5.25ZM20.25 18.75H18.8123L20.25 17.3123V18.75ZM20.2133 15.3073C20.1222 15.345 20.0395 15.4003 19.9698 15.47L16.6898 18.75H11.0623L20.25 9.56226V15.2932C20.2377 15.2976 20.2254 15.3023 20.2133 15.3073Z" fill="black"/>
</svg>

<svg xmlns="http://www.w3.org/2000/svg" width="24" height="24" fill="currentColor" viewBox="0 0 24 24">
  <path d="M16.21 3.75H3.75a1.5 1.5 0 0 0-1.5 1.5v12.46a.747.747 0 0 0 0 .078v.962a1.5 1.5 0 0 0 1.5 1.5h13.212a.718.718 0 0 0 .077 0h3.211a1.5 1.5 0 0 0 1.5-1.5V7.79a.718.718 0 0 0 0-.078V5.25a1.5 1.5 0 0 0-1.5-1.5h-3.962a.75.75 0 0 0-.077 0ZM3.75 10.207a.75.75 0 0 0 .28-.177l4.5-4.5a.75.75 0 0 0 .177-.28h5.73L3.75 15.938v-5.731ZM6.688 5.25 3.75 8.188V5.25h2.938Zm9.872 0h3.69v2.19L9.22 18.47a.75.75 0 0 0-.177.28H3.75v-.69L16.56 5.25Zm3.69 13.5h-1.438l1.438-1.438v1.438Zm-.037-3.443a.75.75 0 0 0-.243.163l-3.28 3.28h-5.628l9.188-9.188v5.731a.816.816 0 0 0-.037.014Z"/>
</svg>
